X:3041
T:Church Street polka
S:Charlie Menzies
R:Polka
O:Ireland
M:2/4
L:1/8
K:G
BG D>D | Ec cA/B/ | cE F>E | Dd d/e/d/c/ |\
BG D>D | Ec cA/B/ | c/B/A/G/ F/D/E/F/ | GB G:|
|:B/d/ |\
g2f2 | (c2 c>)d | ee dd | (B2 B>)c \
|1 d<e dB | A2 AB/A/ | G>A Bc | d2e>f :|2 \
d>e dc | A2 G>F | Gg fa | g2 g:|


